docs/images/icons/figma_small.svg

<svg width="11.000000" height="16.000000" viewBox="0 0 11 16" fill="none" xmlns="http://www.w3.org/2000/svg" xmlns:xlink="http://www.w3.org/1999/xlink">
	<desc>
			Created with Pixso.
	</desc>
	<defs>
		<clipPath id="clip128_620">
			<rect id="Figma-logo 1" width="11.000000" height="16.000000" fill="white" fill-opacity="0"/>
		</clipPath>
	</defs>
	<rect id="Figma-logo 1" width="11.000000" height="16.000000" fill="#FFFFFF" fill-opacity="0"/>
	<g clip-path="url(#clip128_620)">
		<path id="path0_fill" d="M2.75055 16.0001C4.26825 16.0001 5.5 14.8054 5.5 13.3334L5.5 10.6667L2.75055 10.6667C1.23285 10.6667 0.00109863 11.8614 0.00109863 13.3334C0.00109863 14.8054 1.23285 16.0001 2.75055 16.0001Z" fill="#0ACF83" fill-opacity="1.000000" fill-rule="nonzero"/>
		<path id="path1_fill" d="M0.00109863 8.00006C0.00109863 6.52802 1.23285 5.33337 2.75055 5.33337L5.5 5.33337L5.5 10.6667L2.75055 10.6667C1.23285 10.6667 0.00109863 9.47205 0.00109863 8.00006Z" fill="#A259FF" fill-opacity="1.000000" fill-rule="nonzero"/>
		<path id="path1_fill_1_" d="M0.00109863 2.66669C0.00109863 1.19464 1.23285 0 2.75055 0L5.5 0L5.5 5.33331L2.75055 5.33331C1.23285 5.33331 0.00109863 4.13867 0.00109863 2.66669Z" fill="#F24E1E" fill-opacity="1.000000" fill-rule="nonzero"/>
		<path id="path2_fill" d="M5.5 0L8.24945 0C9.76715 0 10.9989 1.19464 10.9989 2.66669C10.9989 4.13867 9.76715 5.33331 8.24945 5.33331L5.5 5.33331L5.5 0Z" fill="#FF7262" fill-opacity="1.000000" fill-rule="nonzero"/>
		<path id="path3_fill" d="M10.9989 8.00006C10.9989 9.47205 9.76715 10.6667 8.24945 10.6667C6.73175 10.6667 5.5 9.47205 5.5 8.00006C5.5 6.52802 6.73175 5.33337 8.24945 5.33337C9.76715 5.33337 10.9989 6.52802 10.9989 8.00006Z" fill="#1ABCFE" fill-opacity="1.000000" fill-rule="nonzero"/>
	</g>
</svg>

<svg width="11" height="16" fill="none" xmlns="http://www.w3.org/2000/svg"><defs><clipPath id="a"><path fill="#fff" fill-opacity="0" d="M0 0h11v16H0z"/></clipPath></defs><path d="M0 0h11v16H0z"/><g clip-path="url(#a)"><path d="M2.75 16c1.518 0 2.75-1.195 2.75-2.667v-2.666H2.75c-1.517 0-2.749 1.194-2.749 2.666S1.233 16 2.751 16Z" fill="#0ACF83"/><path d="M.001 8c0-1.472 1.232-2.667 2.75-2.667H5.5v5.334H2.75C1.234 10.667.002 9.472.002 8Z" fill="#A259FF"/><path d="M.001 2.667C.001 1.195 1.233 0 2.751 0H5.5v5.333H2.75C1.234 5.333.002 4.14.002 2.667Z" fill="#F24E1E"/><path d="M5.5 0h2.75c1.517 0 2.749 1.195 2.749 2.667 0 1.472-1.232 2.666-2.75 2.666H5.5V0Z" fill="#FF7262"/><path d="M10.999 8c0 1.472-1.232 2.667-2.75 2.667C6.732 10.667 5.5 9.472 5.5 8c0-1.472 1.232-2.667 2.75-2.667 1.517 0 2.749 1.195 2.749 2.667Z" fill="#1ABCFE"/></g></svg>
